!!!COM: z Szamotuł, Wacław
!!!LYR: 
!!!OTL@@POL: Ach mój niebieski Panie
!!!PPR:
!!!PDT:
!!!PPP:
!!!ENC: dr Marcin Konik
!!!END: 2015-03-10
!!!YOO:
!!title: @{OTL}, @{GTL}, ed. @{ENC}
!!!YEM: Creative Commons CC/BY/NC/SA 4.0
!!!EED: Marcin Konik
!!!ONB: Encoded in vim by Marcin Konik
!!!CharacterEncoding: utf-8
!!!RDF**kern: l=long note in original notation
!!!RDF**kern: i=editorial accidental
!!muse2ps: z14jc180F
**kern	**kern	**kern	**kern
*part4	*part3	*part2	*part1
*staff4	*staff3	*staff2	*staff1
*clefF4	*clefGv2	*clefG2	*clefG2
*k[]	*k[]	*k[]	*k[]
*M4/4	*M4/4	*M4/4	*M4/4
=1-	=1-	=1-	=1-
1E	1e	1g	1b
=2	=2	=2	=2
2E	2e	2g	2b
2E	2e	2g	2b
=3	=3	=3	=3
1C	1e	1g	1cc
=4	=4	=4	=4
2G	2d	2g	2b
2A	2c	2e	2a
=5	=5	=5	=5
1E	1B	1e	1g#
=6	=6	=6	=6
1D	1d	1f	1a
=7	=7	=7	=7
2D	2d	2f	2a
[2F	2c	2f	[2a
=8	=8	=8	=8
2F]	2A	2f	2a]
2C	[2c	2e	2g
=9	=9	=9	=9
1D	4c]	1d	1f
.	8BL	.	.
.	8AJ	.	.
.	2B	.	.
=10	=10	=10	=10
1C	1c	1G	1e
=11	=11	=11	=11
1C	1c	1e	1g
=12	=12	=12	=12
2E	2B	2e	2g
2E	2B	2e	2g
=13	=13	=13	=13
2AA	2A	2e	2cc
2E	2G	2e	2b
=14	=14	=14	=14
2F	2A	2c	2a
2F	2A	2d	2a
=15	=15	=15	=15
1E	1B	1e	1g
=16	=16	=16	=16
1C	1e	1c	1g
=17	=17	=17	=17
2C	2c	2g	2cc
[2G	[2d	[2g	[2b
=18	=18	=18	=18
2G]	2d]	2g]	4b]
.	.	.	4a
2A	2c	2e	[2a
=19	=19	=19	=19
1E	1B	1e	2a]
.	.	.	2g#
=20	=20	=20	=20
1AA	1A	1e	1a
==	==	==	==
*-	*-	*-	*-
